public/assets/routes_avatar/partnersTaxReturn.svg

<?xml version="1.0" encoding="UTF-8"?>
<svg width="60px" height="60px" viewBox="0 0 60 60" version="1.1" xmlns="http://www.w3.org/2000/svg" xmlns:xlink="http://www.w3.org/1999/xlink">
    <!-- Generator: Sketch 49.3 (51167) - http://www.bohemiancoding.com/sketch -->
    <title>partnersTaxReturn</title>
    <desc>Created with Sketch.</desc>
    <defs>
        <rect id="path-1" x="3.875" y="0" width="24.21875" height="26.1818182" rx="1.92"></rect>
        <rect id="path-2" x="0" y="3.87878788" width="24.21875" height="26.1818182" rx="1.92"></rect>
    </defs>
    <g id="icon" stroke="none" stroke-width="1" fill="none" fill-rule="evenodd">
        <g id="partnersTaxReturn">
            <circle id="Oval-Copy" fill="#597EF7" cx="30" cy="30" r="30"></circle>
            <g id="Group-66" transform="translate(15.000000, 14.000000)">
                <g id="Rectangle-15">
                    <use fill="#597EF7" fill-rule="evenodd" xlink:href="#path-1"></use>
                    <rect stroke="#FFFFFF" stroke-width="1.5" x="4.625" y="0.75" width="22.71875" height="24.6818182" rx="1.92"></rect>
                </g>
                <g id="Rectangle-15-Copy">
                    <use fill="#597EF7" fill-rule="evenodd" xlink:href="#path-2"></use>
                    <rect stroke="#FFFFFF" stroke-width="1.5" x="0.75" y="4.62878788" width="22.71875" height="24.6818182" rx="1.92"></rect>
                </g>
                <rect id="Rectangle-16-Copy" fill="#FFFFFF" x="4" y="9" width="14" height="1.5" rx="0.75"></rect>
                <rect id="Rectangle-16-Copy-3" fill="#FFFFFF" x="4" y="16.1363636" width="14" height="1.5" rx="0.75"></rect>
                <rect id="Rectangle-16-Copy-2" fill="#FFFFFF" x="3.875" y="23.2727273" width="10" height="1.5" rx="0.75"></rect>
                <ellipse id="Oval-9" fill="#597EF7" cx="23.734375" cy="24.7272727" rx="7.265625" ry="7.27272727"></ellipse>
                <circle id="Oval-9" stroke="#FFFFFF" stroke-width="1.44" fill="#597EF7" cx="23.8000002" cy="24.8000002" r="5.80000019"></circle>
                <path d="M26.4865619,24.8450234 C26.3351927,24.7120908 26.163286,24.6072144 25.9731237,24.5317301 C26.193712,24.4295257 26.3823529,24.2812291 26.5238337,24.0981964 C26.696501,23.8750835 26.7877789,23.6145625 26.7877789,23.3433534 C26.7877789,22.6025384 26.1016734,22 25.2581136,22 C24.938641,22 24.63286,22.0855043 24.3734787,22.247161 C24.1475659,22.3881096 23.9710953,22.5771543 23.8600406,22.7975952 C23.5709939,22.5243821 23.1686105,22.3687375 22.7396045,22.3687375 C21.8960446,22.3687375 21.2099391,22.9712759 21.2099391,23.7120908 C21.2099391,23.9826319 21.301217,24.243153 21.4738844,24.4662659 C21.6153651,24.6492986 21.8040061,24.7975952 22.0245943,24.9004676 C21.834432,24.9759519 21.6617647,25.0808283 21.5111562,25.2137609 C21.1817951,25.503006 21,25.8864395 21,26.2932532 L21,27.3934536 C21,27.7274549 21.3095842,28 21.6906694,28 L23.7900609,28 C24.0669371,28 24.3171907,27.8530394 24.4252028,27.6312625 L26.3093306,27.6312625 C26.6896552,27.6312625 27,27.3593854 27,27.0247161 L27,25.9238477 C26.9977181,25.5170341 26.8166836,25.1336005 26.4865619,24.8450234 Z M24.5590771,22.7294589 C24.7454361,22.5651303 24.9934077,22.4749499 25.2581136,22.4749499 C25.5228195,22.4749499 25.7707911,22.5651303 25.9571501,22.7294589 C26.1442698,22.8931196 26.2469574,23.1108884 26.2469574,23.3433534 C26.2469574,23.5758183 26.1435091,23.7935872 25.9571501,23.9572478 C25.7707911,24.1215765 25.5228195,24.2117568 25.2581136,24.2117568 C24.9934077,24.2117568 24.7454361,24.1215765 24.5590771,23.9572478 C24.3719574,23.7935872 24.2692698,23.5758183 24.2692698,23.3433534 C24.2692698,23.1108884 24.3719574,22.8931196 24.5590771,22.7294589 Z M21.75,23.7120908 C21.75,23.4796259 21.8526876,23.261857 22.0398073,23.0981964 C22.2261663,22.9338677 22.4741379,22.8436874 22.7388438,22.8436874 C23.0035497,22.8436874 23.2515213,22.9338677 23.4378803,23.0981964 C23.625,23.2625251 23.7276876,23.4802939 23.7276876,23.7120908 C23.7276876,23.9445558 23.625,24.1623246 23.4378803,24.3259853 C23.2515213,24.490314 23.0035497,24.5804943 22.7388438,24.5804943 C22.4748986,24.5804943 22.2261663,24.490314 22.0390467,24.3259853 C21.8526876,24.1623246 21.75,23.9438878 21.75,23.7120908 Z M23.9376268,27.3927856 C23.9376268,27.4275217 23.9224138,27.4602538 23.8935091,27.4849699 C23.8653651,27.509686 23.8280933,27.5237141 23.7885396,27.5237141 L21.6891481,27.5237141 C21.606998,27.5237141 21.5400609,27.4649299 21.5400609,27.3927856 L21.5400609,26.2925852 C21.5400609,26.0126921 21.6648073,25.748831 21.8922414,25.5490982 C22.1196755,25.3493654 22.4201318,25.239813 22.7388438,25.239813 C23.0575558,25.239813 23.3580122,25.3493654 23.5854462,25.5490982 C23.5892495,25.5524382 23.5930527,25.5557782 23.5953347,25.5584502 L23.5976166,25.5611222 C23.8166836,25.758851 23.9376268,26.0187041 23.9376268,26.2932532 L23.9376268,27.3927856 Z M23.8037525,25.0861723 C23.6949797,25.011356 23.5778398,24.9492318 23.453854,24.8997996 C23.7558316,24.758851 23.9977181,24.5323981 24.1369168,24.257849 C24.2540568,24.3680695 24.3909736,24.4609218 24.5423428,24.5310621 C24.3521805,24.6065464 24.1795132,24.7120908 24.0289047,24.8443554 C23.9444726,24.9191717 23.8691684,25 23.8037525,25.0861723 Z M26.4568966,27.0247161 C26.4568966,27.0968604 26.3899594,27.1556446 26.3078093,27.1556446 L24.4792089,27.1556446 L24.4792089,26.2925852 C24.4792089,25.98998 24.3788032,25.6993988 24.188641,25.4495658 C24.2464503,25.3500334 24.3209939,25.259853 24.4115112,25.1810287 C24.6381846,24.9812959 24.9394016,24.8710755 25.2581136,24.8710755 C25.5768256,24.8710755 25.8772819,24.9806279 26.104716,25.1803607 C26.3321501,25.3800935 26.4568966,25.6439546 26.4568966,25.9238477 L26.4568966,27.0247161 Z" id="Shape" fill="#FFFFFF" fill-rule="nonzero"></path>
            </g>
        </g>
    </g>
</svg>

<svg width="60" height="60" xmlns="http://www.w3.org/2000/svg" xmlns:xlink="http://www.w3.org/1999/xlink"><defs><rect id="a" x="3.875" y="0" width="24.219" height="26.182" rx="1.92"/><rect id="b" x="0" y="3.879" width="24.219" height="26.182" rx="1.92"/></defs><g fill="none" fill-rule="evenodd"><circle fill="#597EF7" cx="30" cy="30" r="30"/><g transform="translate(15 14)"><use fill="#597EF7" xlink:href="#a"/><rect stroke="#FFF" stroke-width="1.5" x="4.625" y=".75" width="22.719" height="24.682" rx="1.92"/><use fill="#597EF7" xlink:href="#b"/><rect stroke="#FFF" stroke-width="1.5" x=".75" y="4.629" width="22.719" height="24.682" rx="1.92"/><rect fill="#FFF" x="4" y="9" width="14" height="1.5" rx=".75"/><rect fill="#FFF" x="4" y="16.136" width="14" height="1.5" rx=".75"/><rect fill="#FFF" x="3.875" y="23.273" width="10" height="1.5" rx=".75"/><ellipse fill="#597EF7" cx="23.734" cy="24.727" rx="7.266" ry="7.273"/><circle stroke="#FFF" stroke-width="1.44" fill="#597EF7" cx="23.8" cy="24.8" r="5.8"/><path d="M26.487 24.845a1.754 1.754 0 0 0-.514-.313c.22-.102.41-.25.55-.434.174-.223.265-.483.265-.755 0-.74-.686-1.343-1.53-1.343-.32 0-.625.086-.885.247-.225.141-.402.33-.513.55a1.629 1.629 0 0 0-1.12-.428c-.844 0-1.53.602-1.53 1.343 0 .27.091.531.264.754.141.183.33.332.55.434-.19.076-.362.18-.513.314-.33.289-.511.672-.511 1.08v1.1c0 .333.31.606.69.606h2.1c.277 0 .527-.147.635-.369h1.884c.38 0 .691-.272.691-.606v-1.101a1.436 1.436 0 0 0-.513-1.079zm-1.928-2.116c.186-.164.434-.254.7-.254.264 0 .512.09.698.254a.81.81 0 0 1 .29.614c0 .233-.103.45-.29.614a1.052 1.052 0 0 1-.699.255c-.265 0-.513-.09-.699-.255a.81.81 0 0 1-.29-.614.81.81 0 0 1 .29-.614zm-2.809.983a.81.81 0 0 1 .29-.614c.186-.164.434-.254.699-.254.265 0 .513.09.699.254.187.165.29.382.29.614a.81.81 0 0 1-.29.614 1.052 1.052 0 0 1-.7.254c-.263 0-.512-.09-.699-.254a.813.813 0 0 1-.289-.614zm2.188 3.68a.12.12 0 0 1-.044.093.159.159 0 0 1-.105.039h-2.1c-.082 0-.149-.06-.149-.131v-1.1c0-.28.125-.544.352-.744.228-.2.528-.31.847-.31a1.278 1.278 0 0 1 .856.32l.003.002c.219.198.34.458.34.732v1.1zm-.134-2.306a1.778 1.778 0 0 0-.35-.186c.302-.141.544-.368.683-.642.117.11.254.203.405.273a1.759 1.759 0 0 0-.738.555zm2.653 1.939c0 .072-.067.13-.15.13H24.48v-.862c0-.303-.1-.594-.29-.843.057-.1.132-.19.223-.269.226-.2.527-.31.846-.31.319 0 .62.11.847.31.227.2.352.463.352.743v1.1z" fill="#FFF" fill-rule="nonzero"/></g></g></svg>
